X:1
T:9
T:9
T:160 Kurze Übungen op. 821
T:Carl Czerny
C:Carl Czerny
%%score { 1 | ( 2 3 ) }
L:1/8
Q:3/8=100
M:6/8
K:F
V:1 treble nm="Piano" snm="Pno."
V:2 bass 
V:3 bass 
V:1
"^Vivace"!p!!8va(! (!5!c''/b'/a'/g'/f'/!3!e'/!8va)! d'/c'/!4!b/a/g/f/ | !2!e/f/e/f/g/f/ .e) z2 | %2
!8va(! (!4!b'/a'/g'/f'/!3!e'/d'/!8va)! c'/!4!b/a/g/!1!f/!2!e/ | !3!f/g/!2!f/g/a/g/ .f) z2 | %4
!8va(!"_cresc." (!4!f''/e''/d''/c''/!4!b'/a'/ g'/f'/!3!a'/g'/f'/!3!e'/!8va)! | %5
 d'/c'/!3!b/a/g/!2!^f/ !1!g/a/b/c'/.d') |!f!!8va(! (!1!c'/!2!f'/a'/f'/.c'') (!1!e/!2!g/c'/g/.e') | %7
 (!4!f'/c'/a/c'/f'/a'/ !3!f')!8va)! z z |] %8
V:2
 !5!F,3 F,3 | !4!G,3 G,3 | G,3 G,3 | !5!A,3 A,3 | A,3 A,3 |[K:treble] !4!B,3 B,3 | !5!CFA CGB | %7
 [FA][FA][FA] [FA] z2 |] %8
V:3
 F,A,C F,A,C | G,B,C G,B,C | G,B,C G,B,C | A,CF A,CF | A,CF A,CF |[K:treble] B,DG B,DG | C3 C3 | %7
 x6 |] %8

